archdroid-icon-theme/Archdroid-LightBlue/apps/scalable/smplayer.svg

<svg fill="#03A9F4" height="48" viewBox="0 0 48 48" width="48" xmlns="http://www.w3.org/2000/svg"><path d="m8 8c-2.21 0-3.980469 1.79-3.980469 4l-.019531 24c0 2.21 1.79 4 4 4h32c2.21 0 4-1.79 4-4v-28h-8l4 8h-6l-4-8h-4l4 8h-6l-4-8h-4l4 8h-6l-4-8zm12 12 13.333984 7.111328-13.333984 8.888672z" fill="#03A9F4"/></svg>

<svg fill="#03A9F4" height="48" version="1.1" viewBox="0 0 48 48" width="48" xmlns="http://www.w3.org/2000/svg"><path d="M8 8C5.79 8 4.019531 9.79 4.019531 12L4 36C4 38.21 5.79 40 8 40L40 40C42.21 40 44 38.21 44 36L44 8 36 8 40 16 34 16 30 8 26 8 30 16 24 16 20 8 16 8 20 16 14 16 10 8 8 8zM20 20L33.333984 27.111328 20 36 20 20z"/></svg>
